src/components/content/Icon/functional/impact.svg

<svg width="100" height="100" viewBox="0 0 100 100" fill="none" xmlns="http://www.w3.org/2000/svg">
<path d="M75.4002 49.2H28.6182L43.9522 41.064C44.0683 41.0026 44.1712 40.9189 44.2549 40.8176C44.3386 40.7164 44.4015 40.5996 44.4399 40.474C44.4784 40.3484 44.4917 40.2164 44.479 40.0857C44.4664 39.9549 44.428 39.8279 44.3662 39.712C44.3047 39.596 44.2209 39.4932 44.1197 39.4096C44.0184 39.3259 43.9016 39.2631 43.7761 39.2246C43.6505 39.1862 43.5185 39.1729 43.3878 39.1855C43.2571 39.1981 43.1301 39.2363 43.0142 39.298L26.8322 47.882L38.3382 24.136C38.5782 23.638 38.3722 23.04 37.8742 22.8C37.3762 22.56 36.7782 22.766 36.5382 23.264L23.6982 49.764C23.6982 49.764 23.6942 49.78 23.6902 49.786C23.6822 49.804 23.6742 49.824 23.6662 49.842L23.6482 49.89C23.6442 49.9 23.6402 49.912 23.6382 49.922C23.6362 49.93 23.6322 49.938 23.6302 49.946L23.6242 49.976C23.6202 49.992 23.6182 50.01 23.6142 50.026C23.6122 50.042 23.6082 50.058 23.6062 50.076C23.6062 50.088 23.6042 50.1 23.6022 50.112C23.6022 50.122 23.6002 50.13 23.5982 50.14V50.176C23.5982 50.184 23.5962 50.192 23.5962 50.2C23.5962 50.208 23.5982 50.216 23.5982 50.224V50.27C23.5982 50.282 23.6002 50.296 23.6022 50.308C23.6022 50.316 23.6022 50.326 23.6042 50.334C23.6042 50.346 23.6102 50.36 23.6122 50.372C23.6142 50.39 23.6182 50.406 23.6222 50.422C23.6262 50.436 23.6282 50.448 23.6322 50.462C23.6362 50.474 23.6382 50.484 23.6422 50.496C23.6442 50.504 23.6462 50.512 23.6482 50.518C23.6522 50.53 23.6582 50.542 23.6642 50.554C23.6722 50.574 23.6782 50.592 23.6882 50.61C23.6922 50.618 23.6922 50.626 23.6962 50.632L36.5362 77.132C36.5934 77.2502 36.6734 77.356 36.7715 77.4433C36.8697 77.5306 36.984 77.5977 37.1081 77.6408C37.2321 77.6838 37.3635 77.7021 37.4946 77.6944C37.6257 77.6867 37.754 77.6533 37.8722 77.596C38.3682 77.356 38.5762 76.756 38.3362 76.26L26.7822 52.416L50.4622 64.338C50.6062 64.41 50.7602 64.446 50.9102 64.446C51.2762 64.446 51.6282 64.244 51.8042 63.896C52.0522 63.402 51.8542 62.802 51.3602 62.554L28.8022 51.198H75.3922C75.9442 51.198 76.3922 50.75 76.3922 50.198C76.3922 49.646 75.9442 49.198 75.3922 49.198L75.4002 49.2ZM70.4922 72.186L61.3982 67.608C61.2809 67.549 61.1532 67.5137 61.0223 67.5041C60.8914 67.4945 60.7598 67.5107 60.6352 67.552C60.5106 67.5932 60.3953 67.6586 60.2959 67.7444C60.1966 67.8302 60.1151 67.9347 60.0562 68.052C59.9971 68.1693 59.9617 68.297 59.9521 68.428C59.9424 68.5589 59.9587 68.6905 59.9999 68.8151C60.0411 68.9398 60.1065 69.0551 60.1924 69.1544C60.2782 69.2537 60.3828 69.3352 60.5002 69.394L69.5942 73.972C69.7382 74.044 69.8922 74.08 70.0422 74.08C70.4082 74.08 70.7602 73.878 70.9362 73.53C71.1842 73.036 70.9862 72.436 70.4922 72.188V72.186Z" fill="#0B301A"/>
<path d="M51.5702 36.892C51.7282 36.892 51.8882 36.854 52.0382 36.776L61.4262 31.794C61.5423 31.7326 61.6452 31.6489 61.7289 31.5476C61.8126 31.4464 61.8755 31.3296 61.9139 31.204C61.9524 31.0784 61.9657 30.9464 61.953 30.8157C61.9404 30.6849 61.902 30.5579 61.8402 30.442C61.7787 30.326 61.6949 30.2232 61.5937 30.1396C61.4924 30.0559 61.3756 29.9931 61.2501 29.9546C61.1245 29.9162 60.9925 29.9029 60.8618 29.9155C60.7311 29.9281 60.6041 29.9663 60.4882 30.028L51.1002 35.01C50.9841 35.0715 50.8812 35.1552 50.7975 35.2564C50.7138 35.3577 50.6509 35.4745 50.6125 35.6001C50.574 35.7257 50.5607 35.8577 50.5734 35.9884C50.586 36.1192 50.6244 36.2461 50.6862 36.362C50.8662 36.7 51.2122 36.894 51.5702 36.894V36.892Z" fill="#0B301A"/>
</svg>

<svg xmlns="http://www.w3.org/2000/svg" width="100" height="100" fill="none" viewBox="0 0 100 100"><path fill="#0b301a" d="M75.4 49.2H28.618l15.334-8.136a.998.998 0 0 0 .168-1.654 1 1 0 0 0-1.106-.112l-16.182 8.584 11.506-23.746a1 1 0 1 0-1.8-.872l-12.84 26.5s-.004.016-.008.022l-.024.056-.018.048-.01.032-.008.024-.006.03-.01.05-.008.05q0 .018-.004.036 0 .014-.004.028v.036l-.002.024.002.024v.046q0 .019.004.038 0 .013.002.026c0 .012.006.026.008.038q.003.026.01.05l.01.04.01.034.006.022q.007.018.016.036.01.03.024.056c.004.008.004.016.008.022l12.84 26.5a1 1 0 1 0 1.8-.872L26.782 52.416l23.68 11.922a1.002 1.002 0 0 0 1.342-.442 1 1 0 0 0-.444-1.342L28.802 51.198h46.59a1 1 0 0 0 0-2zm-4.908 22.986-9.094-4.578a1 1 0 1 0-.898 1.786l9.094 4.578a1.002 1.002 0 0 0 1.342-.442 1 1 0 0 0-.444-1.342z"/><path fill="#0b301a" d="M51.57 36.892c.158 0 .318-.038.468-.116l9.388-4.982a.998.998 0 0 0 .168-1.654 1 1 0 0 0-1.106-.112L51.1 35.01a1 1 0 0 0 .47 1.884z"/></svg>
